icons/svg/wunderlist.svg

﻿<?xml version="1.0" encoding="utf-8"?>
<!DOCTYPE svg PUBLIC "-//W3C//DTD SVG 1.1//EN" "http://www.w3.org/Graphics/SVG/1.1/DTD/svg11.dtd">
<svg xmlns="http://www.w3.org/2000/svg" xmlns:xlink="http://www.w3.org/1999/xlink" version="1.1" baseProfile="full" width="24" height="24" viewBox="0 0 24.00 24.00" enable-background="new 0 0 24.00 24.00" xml:space="preserve">
	<path fill="#000000" fill-opacity="1" stroke-width="0.2" stroke-linejoin="round" d="M 17,17.5L 12,15L 7,17.5L 7,5L 5,5L 5,19L 19,19L 19,5L 17,5L 17,17.5 Z M 11.9998,12.4166L 14.247,13.7719L 13.6525,11.2159L 15.6361,9.49738L 13.0212,9.27265L 11.9998,6.86286L 10.9783,9.27265L 8.36347,9.49738L 10.3471,11.2159L 9.75254,13.7719L 11.9998,12.4166 Z M 5,3L 19,3C 20.1046,3 21,3.89543 21,5L 21,19C 21,20.1046 20.1046,21 19,21L 5,21C 3.89543,21 3,20.1046 3,19L 3,5C 3,3.89543 3.89543,3 5,3 Z "/>
</svg>

<svg xmlns="http://www.w3.org/2000/svg" version="1.1" baseProfile="full" width="24" height="24" viewBox="0 0 24.00 24.00" xml:space="preserve"><path fill="#000" fill-opacity="1" stroke-width=".2" stroke-linejoin="round" d="M17 17.5L12 15l-5 2.5V5H5v14h14V5h-2v12.5zm-5-5.083l2.247 1.355-.595-2.556 1.984-1.72-2.615-.223L12 6.863l-1.022 2.41-2.615.224 1.984 1.72-.594 2.555L12 12.417zM5 3h14c1.105 0 2 .895 2 2v14c0 1.105-.895 2-2 2H5c-1.105 0-2-.895-2-2V5c0-1.105.895-2 2-2z"/></svg>
